X: 37145
T: Siobhán McCaughey's
R: reel
M: 4/4
K: Dmajor
|:fBBf aBfB|BBfB ABce|fBBf aBfB|abfe dBAd|
fBBf aBfB|BBfe cBAc|d2fd ecAB|1 cB^Ac Baba:|2 cB^Ac B2Bc||
|:BGGG Bcdf|cBAB cdea|fBBf aBfB|abfe dBAd|BGGG Bcdf|
cBAB cdea|1 fBdf abfe|dBAd B2Bc:|2 bafb afec|dfec Baba||

